KINDER
CUT[SCHLOAP KINNEKEN SCHLOAP]
REG[Europa, Mitteleuropa, Deutschland, Brandenburg]
KEY[K0017  16  F 2/4]
MEL[  5__332_  1__0_
    1_  5_.43_2_  1__0_
    11  3_2_3_5_  4_3_2__
    3_2_3_5_  4_3_2__
    5__332_  1__0__ //] >>
FCT[Kinder -, Wiegen - Lied]
